X:10618
T:B\aansull
T:Lullaby
C:anon., arr. Frank Nordberg
O:Norway
R:Lullaby
Z:Transcribed by Frank Nordberg - http://www.musicaviva.com
F:http://abc.musicaviva.com/tunes/norway/baansull/baansull-ddad1.abc
V:1 Program 1 25 up %Acoustic guitar
V:2 Program 1 25 merge down %Acoustic guitar
M:2/4
L:1/8
Q:1/4=82
K:Dm
V:1
DEFG|AAA2|A_B^cd|A2A2|
V:2
D,4|D4|[D,4-D4-]|[D,4D4]|
%
V:1
Bd^cc|_BBA2|[DA]GFE|D2D2|]
V:2
[D,4-D4-]|[D,4D4]|D,4-|D,2D,2|]
W:
W:Sullan lullan lite ban,
W:no skal barnet sove,
W:somne trygt i mor sitt fang,
W:sove trygt p\aa pute.
W:
W:
W:  From Musica Viva - http://www.musicaviva.com
W:  the Internet center for free sheet music downloads.
